public/logos/FG.svg

<?xml version="1.0" encoding="UTF-8"?>
<svg xmlns="http://www.w3.org/2000/svg" xmlns:xlink="http://www.w3.org/1999/xlink" width="176pt" height="43.41pt" viewBox="0 0 176 43.41" version="1.1">
<defs>
<g>
<symbol overflow="visible" id="glyph0-0">
<path style="stroke:none;" d="M 0 0 L 2.75 0 L 2.75 -2.296875 L 0 -2.296875 Z M 1.375 -1.296875 L 0.4375 -2.140625 L 2.3125 -2.140625 Z M 1.546875 -1.15625 L 2.484375 -1.984375 L 2.484375 -0.3125 Z M 0.4375 -0.171875 L 1.375 -1 L 2.3125 -0.171875 Z M 0.28125 -1.984375 L 1.21875 -1.15625 L 0.28125 -0.3125 Z M 0.28125 -1.984375 "/>
</symbol>
<symbol overflow="visible" id="glyph0-1">
<path style="stroke:none;" d="M 2.34375 -0.703125 L 2.734375 0 L 3.25 0 L 1.984375 -2.21875 L 1.40625 -2.21875 L 0.140625 0 L 0.640625 0 L 1.015625 -0.703125 Z M 1.125 -0.921875 L 1.484375 -1.5625 C 1.5625 -1.6875 1.609375 -1.828125 1.671875 -1.953125 L 1.6875 -1.953125 C 1.734375 -1.828125 1.796875 -1.703125 1.875 -1.5625 L 2.234375 -0.921875 Z M 1.125 -0.921875 "/>
</symbol>
<symbol overflow="visible" id="glyph0-2">
<path style="stroke:none;" d="M 0.421875 0 L 0.90625 0 L 0.90625 -0.953125 L 1.34375 -0.953125 C 1.78125 -0.953125 1.984375 -0.828125 2.09375 -0.53125 C 2.203125 -0.25 2.28125 -0.0625 2.34375 0 L 2.84375 0 C 2.765625 -0.078125 2.671875 -0.296875 2.546875 -0.609375 C 2.46875 -0.84375 2.296875 -1 2 -1.046875 L 2 -1.0625 C 2.40625 -1.140625 2.703125 -1.328125 2.703125 -1.625 C 2.703125 -1.796875 2.609375 -1.953125 2.421875 -2.046875 C 2.1875 -2.171875 1.859375 -2.234375 1.34375 -2.234375 C 1.015625 -2.234375 0.65625 -2.21875 0.421875 -2.1875 Z M 0.90625 -1.984375 C 0.96875 -2 1.140625 -2.015625 1.375 -2.015625 C 1.875 -2 2.234375 -1.875 2.234375 -1.59375 C 2.234375 -1.34375 1.90625 -1.171875 1.390625 -1.171875 L 0.90625 -1.171875 Z M 0.90625 -1.984375 "/>
</symbol>
<symbol overflow="visible" id="glyph0-3">
<path style="stroke:none;" d="M 0.421875 -2.21875 L 0.421875 0 L 0.90625 0 L 0.90625 -2.21875 Z M 0.421875 -2.21875 "/>
</symbol>
<symbol overflow="visible" id="glyph0-4">
<path style="stroke:none;" d="M 0.875 0 L 0.875 -0.9375 C 0.875 -1.3125 0.859375 -1.578125 0.828125 -1.859375 L 0.84375 -1.859375 C 1.03125 -1.625 1.28125 -1.375 1.546875 -1.125 L 2.71875 0 L 3.203125 0 L 3.203125 -2.21875 L 2.75 -2.21875 L 2.75 -1.28125 C 2.75 -0.9375 2.765625 -0.671875 2.8125 -0.375 L 2.796875 -0.375 C 2.625 -0.59375 2.40625 -0.828125 2.140625 -1.09375 L 0.9375 -2.21875 L 0.421875 -2.21875 L 0.421875 0 Z M 0.875 0 "/>
</symbol>
</g>
<clipPath id="clip1">
  <path d="M 3 0 L 48 0 L 48 43.410156 L 3 43.410156 Z M 3 0 "/>
</clipPath>
</defs>
<g id="surface1">
<g clip-path="url(#clip1)" clip-rule="nonzero">
<path style=" stroke:none;fill-rule:nonzero;fill:rgb(27.062988%,37.347412%,71.020508%);fill-opacity:1;" d="M 47.054688 21.707031 C 47.054688 33.691406 37.335938 43.410156 25.347656 43.410156 C 13.363281 43.410156 3.644531 33.691406 3.644531 21.707031 C 3.644531 9.71875 13.363281 0 25.347656 0 C 37.335938 0 47.054688 9.71875 47.054688 21.707031 "/>
</g>
<path style=" stroke:none;fill-rule:nonzero;fill:rgb(100%,100%,100%);fill-opacity:1;" d="M 0.128906 18.785156 L 21.492188 13.960938 L 10.8125 8.335938 L 35.859375 8.335938 L 34.152344 11.449219 L 50.632812 8.535156 L 34.957031 16.074219 L 39.78125 17.882812 L 17.472656 30.941406 L 26.816406 20.09375 L 9.230469 27.929688 L 17.671875 19.386719 L 0.128906 18.785156 "/>
<path style=" stroke:none;fill-rule:nonzero;fill:rgb(27.062988%,37.347412%,71.020508%);fill-opacity:1;" d="M 26.878906 20.046875 L 26.828125 20.101562 L 17.550781 30.878906 L 39.742188 17.882812 L 34.914062 16.074219 L 34.949219 16.058594 L 50.515625 8.574219 L 34.121094 11.472656 L 35.832031 8.351562 L 10.878906 8.351562 L 21.539062 13.96875 L 21.496094 13.980469 L 0.261719 18.773438 L 17.710938 19.375 L 17.683594 19.398438 L 9.308594 27.878906 Z M 17.394531 31.007812 L 26.753906 20.136719 L 9.15625 27.980469 L 17.632812 19.402344 L 0 18.796875 L 0.125 18.769531 L 21.445312 13.957031 L 10.742188 8.320312 L 35.890625 8.320312 L 34.183594 11.425781 L 50.75 8.5 L 35 16.070312 L 39.820312 17.878906 L 39.789062 17.894531 L 17.394531 31.007812 "/>
<g style="fill:rgb(100%,100%,100%);fill-opacity:1;">
  <use xlink:href="#glyph0-1" x="15.2551" y="34.61273"/>
</g>
<g style="fill:rgb(100%,100%,100%);fill-opacity:1;">
  <use xlink:href="#glyph0-2" x="19.178926" y="34.61273"/>
</g>
<g style="fill:rgb(100%,100%,100%);fill-opacity:1;">
  <use xlink:href="#glyph0-3" x="22.694552" y="34.61273"/>
</g>
<g style="fill:rgb(100%,100%,100%);fill-opacity:1;">
  <use xlink:href="#glyph0-1" x="24.562711" y="34.61273"/>
</g>
<g style="fill:rgb(100%,100%,100%);fill-opacity:1;">
  <use xlink:href="#glyph0-4" x="28.486045" y="34.61273"/>
</g>
<g style="fill:rgb(100%,100%,100%);fill-opacity:1;">
  <use xlink:href="#glyph0-1" x="32.663292" y="34.61273"/>
</g>
<path style=" stroke:none;fill-rule:nonzero;fill:rgb(6.266785%,5.734253%,5.047607%);fill-opacity:1;" d="M 63.578125 22.050781 L 62.882812 20.003906 C 62.722656 19.542969 62.617188 19.121094 62.511719 18.707031 L 62.492188 18.707031 C 62.386719 19.128906 62.269531 19.5625 62.132812 19.996094 L 61.4375 22.050781 Z M 61.246094 22.769531 L 60.507812 25.007812 L 59.558594 25.007812 L 61.976562 17.894531 L 63.082031 17.894531 L 65.511719 25.007812 L 64.527344 25.007812 L 63.769531 22.769531 L 61.246094 22.769531 "/>
<path style=" stroke:none;fill-rule:nonzero;fill:rgb(6.266785%,5.734253%,5.047607%);fill-opacity:1;" d="M 67.472656 21.230469 L 68.410156 21.230469 C 69.390625 21.230469 70.015625 20.691406 70.015625 19.878906 C 70.015625 18.960938 69.351562 18.558594 68.378906 18.550781 C 67.9375 18.550781 67.621094 18.59375 67.472656 18.632812 Z M 66.554688 17.992188 C 67.019531 17.894531 67.683594 17.84375 68.316406 17.84375 C 69.296875 17.84375 69.929688 18.023438 70.375 18.421875 C 70.730469 18.738281 70.933594 19.226562 70.933594 19.773438 C 70.933594 20.710938 70.34375 21.335938 69.59375 21.589844 L 69.59375 21.621094 C 70.140625 21.808594 70.46875 22.316406 70.636719 23.054688 C 70.867188 24.046875 71.039062 24.730469 71.183594 25.007812 L 70.234375 25.007812 C 70.121094 24.804688 69.960938 24.195312 69.761719 23.308594 C 69.550781 22.328125 69.171875 21.957031 68.335938 21.925781 L 67.472656 21.925781 L 67.472656 25.007812 L 66.554688 25.007812 L 66.554688 17.992188 "/>
<path style=" stroke:none;fill-rule:nonzero;fill:rgb(6.266785%,5.734253%,5.047607%);fill-opacity:1;" d="M 73.148438 17.894531 L 73.148438 25.007812 L 72.230469 25.007812 L 72.230469 17.894531 L 73.148438 17.894531 "/>
<path style=" stroke:none;fill-rule:nonzero;fill:rgb(6.266785%,5.734253%,5.047607%);fill-opacity:1;" d="M 78.234375 22.050781 L 77.535156 20.003906 C 77.378906 19.542969 77.273438 19.121094 77.167969 18.707031 L 77.148438 18.707031 C 77.039062 19.128906 76.925781 19.5625 76.789062 19.996094 L 76.089844 22.050781 Z M 75.902344 22.769531 L 75.164062 25.007812 L 74.214844 25.007812 L 76.628906 17.894531 L 77.738281 17.894531 L 80.164062 25.007812 L 79.183594 25.007812 L 78.421875 22.769531 L 75.902344 22.769531 "/>
<path style=" stroke:none;fill-rule:nonzero;fill:rgb(6.266785%,5.734253%,5.047607%);fill-opacity:1;" d="M 81.207031 25.007812 L 81.207031 17.894531 L 82.210938 17.894531 L 84.488281 21.492188 C 85.015625 22.328125 85.429688 23.074219 85.765625 23.804688 L 85.785156 23.792969 C 85.703125 22.84375 85.679688 21.980469 85.679688 20.871094 L 85.679688 17.894531 L 86.546875 17.894531 L 86.546875 25.007812 L 85.617188 25.007812 L 83.359375 21.398438 C 82.863281 20.605469 82.390625 19.792969 82.03125 19.023438 L 82 19.035156 C 82.050781 19.933594 82.074219 20.785156 82.074219 21.96875 L 82.074219 25.007812 L 81.207031 25.007812 "/>
<path style=" stroke:none;fill-rule:nonzero;fill:rgb(6.266785%,5.734253%,5.047607%);fill-opacity:1;" d="M 91.632812 22.050781 L 90.933594 20.003906 C 90.777344 19.542969 90.671875 19.121094 90.566406 18.707031 L 90.542969 18.707031 C 90.441406 19.128906 90.324219 19.5625 90.183594 19.996094 L 89.488281 22.050781 Z M 89.300781 22.769531 L 88.5625 25.007812 L 87.613281 25.007812 L 90.027344 17.894531 L 91.136719 17.894531 L 93.5625 25.007812 L 92.582031 25.007812 L 91.824219 22.769531 L 89.300781 22.769531 "/>
<path style=" stroke:none;fill-rule:nonzero;fill:rgb(6.266785%,5.734253%,5.047607%);fill-opacity:1;" d="M 100.324219 22.050781 L 99.628906 20.003906 C 99.46875 19.542969 99.363281 19.121094 99.261719 18.707031 L 99.238281 18.707031 C 99.132812 19.128906 99.015625 19.5625 98.878906 19.996094 L 98.183594 22.050781 Z M 97.992188 22.769531 L 97.253906 25.007812 L 96.304688 25.007812 L 98.71875 17.894531 L 99.828125 17.894531 L 102.257812 25.007812 L 101.273438 25.007812 L 100.515625 22.769531 L 97.992188 22.769531 "/>
<path style=" stroke:none;fill-rule:nonzero;fill:rgb(6.266785%,5.734253%,5.047607%);fill-opacity:1;" d="M 103.300781 17.894531 L 107.128906 17.894531 L 107.128906 18.664062 L 104.21875 18.664062 L 104.21875 21.027344 L 106.90625 21.027344 L 106.90625 21.789062 L 104.21875 21.789062 L 104.21875 25.007812 L 103.300781 25.007812 L 103.300781 17.894531 "/>
<path style=" stroke:none;fill-rule:nonzero;fill:rgb(6.266785%,5.734253%,5.047607%);fill-opacity:1;" d="M 113.851562 24.691406 C 113.4375 24.835938 112.628906 25.082031 111.664062 25.082031 C 110.589844 25.082031 109.703125 24.804688 109.007812 24.140625 C 108.394531 23.550781 108.015625 22.601562 108.015625 21.492188 C 108.027344 19.371094 109.480469 17.820312 111.867188 17.820312 C 112.6875 17.820312 113.332031 18 113.640625 18.148438 L 113.417969 18.898438 C 113.035156 18.730469 112.5625 18.59375 111.847656 18.59375 C 110.113281 18.59375 108.984375 19.667969 108.984375 21.449219 C 108.984375 23.253906 110.074219 24.320312 111.730469 24.320312 C 112.328125 24.320312 112.742188 24.238281 112.953125 24.132812 L 112.953125 22.011719 L 111.507812 22.011719 L 111.507812 21.273438 L 113.851562 21.273438 L 113.851562 24.691406 "/>
<path style=" stroke:none;fill-rule:nonzero;fill:rgb(6.266785%,5.734253%,5.047607%);fill-opacity:1;" d="M 116.171875 17.894531 L 116.171875 20.871094 L 119.609375 20.871094 L 119.609375 17.894531 L 120.539062 17.894531 L 120.539062 25.007812 L 119.609375 25.007812 L 119.609375 21.671875 L 116.171875 21.671875 L 116.171875 25.007812 L 115.253906 25.007812 L 115.253906 17.894531 L 116.171875 17.894531 "/>
<path style=" stroke:none;fill-rule:nonzero;fill:rgb(6.266785%,5.734253%,5.047607%);fill-opacity:1;" d="M 125.613281 22.050781 L 124.917969 20.003906 C 124.757812 19.542969 124.652344 19.121094 124.546875 18.707031 L 124.527344 18.707031 C 124.421875 19.128906 124.304688 19.5625 124.167969 19.996094 L 123.472656 22.050781 Z M 123.28125 22.769531 L 122.542969 25.007812 L 121.59375 25.007812 L 124.011719 17.894531 L 125.117188 17.894531 L 127.542969 25.007812 L 126.5625 25.007812 L 125.804688 22.769531 L 123.28125 22.769531 "/>
<path style=" stroke:none;fill-rule:nonzero;fill:rgb(6.266785%,5.734253%,5.047607%);fill-opacity:1;" d="M 128.589844 25.007812 L 128.589844 17.894531 L 129.589844 17.894531 L 131.867188 21.492188 C 132.394531 22.328125 132.808594 23.074219 133.144531 23.804688 L 133.167969 23.792969 C 133.082031 22.84375 133.0625 21.980469 133.0625 20.871094 L 133.0625 17.894531 L 133.925781 17.894531 L 133.925781 25.007812 L 132.996094 25.007812 L 130.738281 21.398438 C 130.242188 20.605469 129.769531 19.792969 129.410156 19.023438 L 129.378906 19.035156 C 129.433594 19.933594 129.453125 20.785156 129.453125 21.96875 L 129.453125 25.007812 L 128.589844 25.007812 "/>
<path style=" stroke:none;fill-rule:nonzero;fill:rgb(6.266785%,5.734253%,5.047607%);fill-opacity:1;" d="M 141.246094 22.050781 L 140.554688 20.003906 C 140.394531 19.542969 140.289062 19.121094 140.183594 18.707031 L 140.160156 18.707031 C 140.058594 19.128906 139.9375 19.5625 139.804688 19.996094 L 139.105469 22.050781 Z M 138.914062 22.769531 L 138.179688 25.007812 L 137.230469 25.007812 L 139.644531 17.894531 L 140.753906 17.894531 L 143.179688 25.007812 L 142.195312 25.007812 L 141.4375 22.769531 L 138.914062 22.769531 "/>
<path style=" stroke:none;fill-rule:nonzero;fill:rgb(6.266785%,5.734253%,5.047607%);fill-opacity:1;" d="M 145.140625 17.894531 L 145.140625 25.007812 L 144.222656 25.007812 L 144.222656 17.894531 L 145.140625 17.894531 "/>
<path style=" stroke:none;fill-rule:nonzero;fill:rgb(6.266785%,5.734253%,5.047607%);fill-opacity:1;" d="M 147.660156 21.230469 L 148.601562 21.230469 C 149.582031 21.230469 150.203125 20.691406 150.203125 19.878906 C 150.203125 18.960938 149.539062 18.558594 148.570312 18.550781 C 148.128906 18.550781 147.8125 18.59375 147.660156 18.632812 Z M 146.742188 17.992188 C 147.210938 17.894531 147.871094 17.84375 148.507812 17.84375 C 149.488281 17.84375 150.121094 18.023438 150.5625 18.421875 C 150.921875 18.738281 151.121094 19.226562 151.121094 19.773438 C 151.121094 20.710938 150.53125 21.335938 149.78125 21.589844 L 149.78125 21.621094 C 150.332031 21.808594 150.660156 22.316406 150.828125 23.054688 C 151.0625 24.046875 151.230469 24.730469 151.378906 25.007812 L 150.425781 25.007812 C 150.3125 24.804688 150.152344 24.195312 149.953125 23.308594 C 149.742188 22.328125 149.359375 21.957031 148.527344 21.925781 L 147.660156 21.925781 L 147.660156 25.007812 L 146.742188 25.007812 L 146.742188 17.992188 "/>
<path style=" stroke:none;fill-rule:nonzero;fill:rgb(6.266785%,5.734253%,5.047607%);fill-opacity:1;" d="M 152.421875 17.894531 L 153.339844 17.894531 L 153.339844 24.238281 L 156.378906 24.238281 L 156.378906 25.007812 L 152.421875 25.007812 L 152.421875 17.894531 "/>
<path style=" stroke:none;fill-rule:nonzero;fill:rgb(6.266785%,5.734253%,5.047607%);fill-opacity:1;" d="M 158.316406 17.894531 L 158.316406 25.007812 L 157.398438 25.007812 L 157.398438 17.894531 L 158.316406 17.894531 "/>
<path style=" stroke:none;fill-rule:nonzero;fill:rgb(6.266785%,5.734253%,5.047607%);fill-opacity:1;" d="M 159.921875 25.007812 L 159.921875 17.894531 L 160.925781 17.894531 L 163.203125 21.492188 C 163.730469 22.328125 164.144531 23.074219 164.480469 23.804688 L 164.5 23.792969 C 164.414062 22.84375 164.394531 21.980469 164.394531 20.871094 L 164.394531 17.894531 L 165.261719 17.894531 L 165.261719 25.007812 L 164.332031 25.007812 L 162.074219 21.398438 C 161.578125 20.605469 161.105469 19.792969 160.742188 19.023438 L 160.714844 19.035156 C 160.765625 19.933594 160.785156 20.785156 160.785156 21.96875 L 160.785156 25.007812 L 159.921875 25.007812 "/>
<path style=" stroke:none;fill-rule:nonzero;fill:rgb(6.266785%,5.734253%,5.047607%);fill-opacity:1;" d="M 170.546875 21.671875 L 167.78125 21.671875 L 167.78125 24.238281 L 170.863281 24.238281 L 170.863281 25.007812 L 166.863281 25.007812 L 166.863281 17.894531 L 170.703125 17.894531 L 170.703125 18.664062 L 167.78125 18.664062 L 167.78125 20.914062 L 170.546875 20.914062 L 170.546875 21.671875 "/>
<path style=" stroke:none;fill-rule:nonzero;fill:rgb(6.266785%,5.734253%,5.047607%);fill-opacity:1;" d="M 171.929688 23.886719 C 172.339844 24.140625 172.941406 24.351562 173.574219 24.351562 C 174.511719 24.351562 175.0625 23.855469 175.0625 23.140625 C 175.0625 22.472656 174.683594 22.09375 173.722656 21.726562 C 172.5625 21.3125 171.84375 20.710938 171.84375 19.710938 C 171.84375 18.601562 172.761719 17.78125 174.144531 17.78125 C 174.871094 17.78125 175.398438 17.949219 175.714844 18.128906 L 175.460938 18.875 C 175.230469 18.75 174.757812 18.539062 174.109375 18.539062 C 173.140625 18.539062 172.769531 19.121094 172.769531 19.605469 C 172.769531 20.269531 173.203125 20.597656 174.1875 20.976562 C 175.390625 21.441406 176 22.019531 176 23.066406 C 176 24.164062 175.1875 25.113281 173.511719 25.113281 C 172.824219 25.113281 172.074219 24.910156 171.695312 24.660156 L 171.929688 23.886719 "/>
</g>
</svg>

<svg xmlns="http://www.w3.org/2000/svg" xmlns:xlink="http://www.w3.org/1999/xlink" width="176pt" height="57.88" viewBox="0 0 176 43.41"><defs><symbol id="b" overflow="visible"><path d="m2.344-.703.39.703h.516L1.984-2.219h-.578L.141 0h.5l.375-.703ZM1.125-.922l.36-.64c.077-.125.124-.266.187-.391h.016c.046.125.109.25.187.39l.36.641Zm0 0" style="stroke:none"/></symbol><symbol id="c" overflow="visible"><path d="M.422 0h.484v-.953h.438c.437 0 .64.125.75.422.11.281.187.469.25.531h.5c-.078-.078-.172-.297-.297-.61C2.469-.843 2.297-1 2-1.046v-.016c.406-.078.703-.265.703-.562 0-.172-.094-.328-.281-.422-.235-.125-.563-.187-1.078-.187-.328 0-.688.015-.922.046Zm.484-1.984c.063-.016.235-.032.469-.032.5.016.86.141.86.422 0 .25-.329.422-.844.422H.906Zm0 0" style="stroke:none"/></symbol><symbol id="d" overflow="visible"><path d="M.422-2.219V0h.484v-2.219Zm0 0" style="stroke:none"/></symbol><symbol id="e" overflow="visible"><path d="M.875 0v-.937c0-.375-.016-.641-.047-.922h.016c.187.234.437.484.703.734L2.719 0h.484v-2.219H2.75v.938c0 .343.016.61.063.906h-.016a8 8 0 0 0-.656-.719L.938-2.219H.422V0Zm0 0" style="stroke:none"/></symbol><clipPath id="a"><path d="M3 0h45v43.41H3Zm0 0"/></clipPath></defs><g clip-path="url(#a)"><path d="M47.055 21.707c0 11.984-9.72 21.703-21.707 21.703-11.985 0-21.703-9.719-21.703-21.703C3.645 9.719 13.363 0 25.348 0c11.988 0 21.707 9.719 21.707 21.707" style="stroke:none;fill-rule:nonzero;fill:#455fb5;fill-opacity:1"/></g><path d="m.129 18.785 21.363-4.824-10.68-5.625H35.86l-1.707 3.113 16.48-2.914-15.675 7.54 4.824 1.808L17.473 30.94l9.343-10.847L9.23 27.93l8.442-8.543z" style="stroke:none;fill-rule:nonzero;fill:#fff;fill-opacity:1"/><path d="m26.879 20.047-.05.055-9.278 10.777 22.191-12.996-4.828-1.809.035-.015 15.567-7.485-16.395 2.899 1.711-3.121H10.879l10.66 5.617-.043.011L.262 18.773l17.449.602-.027.023-8.375 8.48Zm-9.484 10.96 9.359-10.87L9.156 27.98l8.477-8.578L0 18.797l.125-.027 21.32-4.813L10.742 8.32h25.149l-1.707 3.106L50.75 8.5 35 16.07l4.82 1.809-.03.016z" style="stroke:none;fill-rule:nonzero;fill:#455fb5;fill-opacity:1"/><use xlink:href="#b" x="15.255" y="34.613" style="fill:#fff;fill-opacity:1"/><use xlink:href="#c" x="19.179" y="34.613" style="fill:#fff;fill-opacity:1"/><use xlink:href="#d" x="22.695" y="34.613" style="fill:#fff;fill-opacity:1"/><use xlink:href="#b" x="24.563" y="34.613" style="fill:#fff;fill-opacity:1"/><use xlink:href="#e" x="28.486" y="34.613" style="fill:#fff;fill-opacity:1"/><use xlink:href="#b" x="32.663" y="34.613" style="fill:#fff;fill-opacity:1"/><path d="m63.578 22.05-.695-2.046c-.16-.461-.266-.883-.371-1.297h-.02c-.105.422-.222.855-.36 1.29l-.694 2.054Zm-2.332.72-.738 2.238h-.95l2.419-7.113h1.105l2.43 7.113h-.985l-.757-2.238zM67.473 21.23h.937c.98 0 1.606-.539 1.606-1.351 0-.918-.664-1.32-1.637-1.328-.442 0-.758.043-.906.082Zm-.918-3.238c.465-.097 1.129-.148 1.761-.148.98 0 1.614.18 2.059.578.355.316.559.805.559 1.351 0 .938-.59 1.563-1.34 1.817v.031c.547.188.875.695 1.043 1.434.23.992.402 1.675.547 1.953h-.95c-.113-.203-.273-.813-.472-1.7-.211-.98-.59-1.351-1.426-1.382h-.863v3.082h-.918zM73.148 17.895v7.113h-.918v-7.113zM78.234 22.05l-.699-2.046c-.156-.461-.262-.883-.367-1.297h-.02c-.109.422-.222.855-.359 1.29l-.7 2.054Zm-2.332.72-.738 2.238h-.95l2.415-7.113h1.11l2.425 7.113h-.98l-.762-2.238zM81.207 25.008v-7.113h1.004l2.277 3.597c.528.836.942 1.582 1.278 2.313l.02-.012a32 32 0 0 1-.106-2.922v-2.976h.867v7.113h-.93l-2.258-3.61c-.496-.793-.968-1.605-1.328-2.375l-.031.012c.05.899.074 1.75.074 2.934v3.039zM91.633 22.05l-.7-2.046c-.156-.461-.261-.883-.367-1.297h-.023c-.102.422-.219.855-.36 1.29l-.695 2.054Zm-2.332.72-.739 2.238h-.949l2.414-7.113h1.11l2.425 7.113h-.98l-.758-2.238zM100.324 22.05l-.695-2.046c-.16-.461-.266-.883-.367-1.297h-.024c-.105.422-.222.855-.36 1.29l-.694 2.054Zm-2.332.72-.738 2.238h-.95l2.415-7.113h1.11l2.429 7.113h-.985l-.757-2.238zM103.3 17.895h3.829v.77h-2.91v2.362h2.687v.762h-2.687v3.219h-.918zM113.852 24.691a6.7 6.7 0 0 1-2.188.391c-1.074 0-1.96-.277-2.656-.941-.613-.59-.992-1.54-.992-2.649.011-2.12 1.464-3.672 3.851-3.672.82 0 1.465.18 1.774.328l-.223.75c-.383-.168-.856-.304-1.57-.304-1.735 0-2.864 1.074-2.864 2.855 0 1.805 1.09 2.871 2.746 2.871.598 0 1.012-.082 1.223-.187v-2.121h-1.445v-.739h2.344zM116.172 17.895v2.976h3.437v-2.976h.93v7.113h-.93v-3.336h-3.437v3.336h-.918v-7.113zM125.613 22.05l-.695-2.046c-.16-.461-.266-.883-.371-1.297h-.02c-.105.422-.222.855-.359 1.29l-.695 2.054Zm-2.332.72-.738 2.238h-.95l2.419-7.113h1.105l2.426 7.113h-.98l-.758-2.238zM128.59 25.008v-7.113h1l2.277 3.597c.528.836.942 1.582 1.278 2.313l.023-.012c-.086-.95-.106-1.813-.106-2.922v-2.976h.864v7.113h-.93l-2.258-3.61c-.496-.793-.968-1.605-1.328-2.375l-.031.012c.055.899.074 1.75.074 2.934v3.039zM141.246 22.05l-.691-2.046c-.16-.461-.266-.883-.371-1.297h-.024c-.101.422-.222.855-.355 1.29l-.7 2.054Zm-2.332.72-.734 2.238h-.95l2.415-7.113h1.109l2.426 7.113h-.985l-.757-2.238zM145.14 17.895v7.113h-.917v-7.113zM147.66 21.23h.942c.98 0 1.601-.539 1.601-1.351 0-.918-.664-1.32-1.633-1.328-.441 0-.757.043-.91.082Zm-.918-3.238c.469-.097 1.13-.148 1.766-.148.98 0 1.613.18 2.054.578.36.316.56.805.56 1.351 0 .938-.59 1.563-1.34 1.817v.031c.55.188.878.695 1.046 1.434.234.992.402 1.675.55 1.953h-.952c-.113-.203-.274-.813-.473-1.7-.21-.98-.594-1.351-1.426-1.382h-.867v3.082h-.918zM152.422 17.895h.918v6.343h3.039v.77h-3.957zM158.316 17.895v7.113h-.918v-7.113zM159.922 25.008v-7.113h1.004l2.277 3.597c.527.836.942 1.582 1.277 2.313l.02-.012c-.086-.95-.105-1.813-.105-2.922v-2.976h.867v7.113h-.93l-2.258-3.61c-.496-.793-.969-1.605-1.332-2.375l-.027.012c.05.899.07 1.75.07 2.934v3.039zM170.547 21.672h-2.766v2.566h3.082v.77h-4v-7.113h3.84v.77h-2.922v2.25h2.766zM171.93 23.887c.41.254 1.011.465 1.644.465.938 0 1.488-.497 1.488-1.211 0-.668-.378-1.047-1.34-1.414-1.16-.415-1.878-1.016-1.878-2.016 0-1.11.918-1.93 2.3-1.93.727 0 1.254.168 1.57.348l-.253.746a2.84 2.84 0 0 0-1.352-.336c-.968 0-1.34.582-1.34 1.066 0 .665.434.993 1.418 1.372 1.204.464 1.813 1.043 1.813 2.09 0 1.097-.812 2.046-2.488 2.046-.688 0-1.438-.203-1.817-.453z" style="stroke:none;fill-rule:nonzero;fill:#100f0d;fill-opacity:1"/></svg>
